img/envelope-white.svg

<svg xmlns="http://www.w3.org/2000/svg" width="20" height="15" viewBox="0 0 20 15" fill="#fff">
  <path d="M19.4786 1.53937C19.4786 5.46303 19.4786 9.38621 19.4786 13.3099C19.4729 13.3213 19.4644 13.3322 19.4625 13.3441C19.3219 14.2571 18.5591 14.8611 17.5829 14.8335C16.7339 14.8097 15.8839 14.8287 15.0344 14.8287C10.6282 14.8287 6.22161 14.8292 1.81547 14.8283C0.757762 14.8278 0.00498206 14.1073 0.00355273 13.0726C-0.00168814 9.30727 -0.00216459 5.54244 0.00927005 1.77714C0.0102229 1.51417 0.0740663 1.2298 0.18746 0.992981C0.511918 0.312963 1.09175 0.0205078 1.83452 0.0205078C7.10303 0.0214589 12.3715 0.0209833 17.6401 0.0209833C17.6844 0.0209833 17.7287 0.0200322 17.773 0.0219344C18.3137 0.0466623 18.7626 0.25257 19.1075 0.679602C19.3138 0.934014 19.4048 1.2317 19.4786 1.53937ZM17.4747 1.17559C12.3168 1.17559 7.1583 1.17559 1.97031 1.17559C4.5836 3.76156 7.1745 6.3247 9.75444 8.87738C12.3377 6.30045 14.9048 3.73921 17.4747 1.17559ZM12.0266 8.23588C11.9842 8.28724 11.9446 8.34526 11.8961 8.39376C11.35 8.94015 10.8031 9.48607 10.2552 10.031C9.92977 10.3544 9.62675 10.3549 9.29991 10.0325C8.73199 9.4718 8.16598 8.90972 7.59901 8.34859C7.55137 8.30103 7.50086 8.25586 7.48562 8.24159C5.65465 10.0686 3.83892 11.8813 2.04082 13.6756C7.16354 13.6756 12.3229 13.6756 17.4766 13.6756C15.6685 11.8709 13.8638 10.0696 12.0266 8.23588ZM1.1513 12.7697C2.94511 10.9793 4.76417 9.16366 6.58514 7.34615C4.80038 5.57953 2.98942 3.78724 1.1513 1.96783C1.1513 5.61805 1.1513 9.22167 1.1513 12.7697ZM12.928 7.4075C14.7295 9.2055 16.5357 11.0083 18.3247 12.7934C18.3247 9.22405 18.3247 5.61853 18.3247 2.02109C16.5176 3.8248 14.7133 5.62566 12.928 7.4075Z" fill=""/>
</svg>

<svg xmlns="http://www.w3.org/2000/svg" width="20" height="15" fill="#707070"><path d="M19.479 1.54v11.77c-.006.011-.015.022-.017.034-.14.913-.903 1.517-1.88 1.49-.848-.024-1.698-.005-2.548-.005H1.815c-1.057-.001-1.81-.722-1.811-1.756-.006-3.766-.006-7.53.005-11.296.001-.263.065-.547.178-.784.325-.68.905-.972 1.648-.972h15.938c.54.026.99.232 1.335.659.206.254.297.552.37.86zm-2.004-.364H1.97l7.784 7.701 7.72-7.701zm-5.448 7.06c-.043.051-.082.11-.13.158l-1.642 1.637c-.325.323-.628.324-.955.002L7.599 8.349c-.048-.048-.098-.093-.113-.107L2.04 13.676h15.436l-5.45-5.44zM1.15 12.77l5.434-5.424L1.15 1.968V12.77zm11.777-5.362l5.397 5.385V2.021l-5.397 5.386z"/></svg>
